assets/img/icon-edit.svg

<svg width="218" height="118" viewBox="0 0 218 118" fill="none" xmlns="http://www.w3.org/2000/svg">
<path d="M0 0H218V118H0V0Z" fill="#F6F6F6"/>
<mask id="mask0_5151_8853" style="mask-type:alpha" maskUnits="userSpaceOnUse" x="74" y="24" width="69" height="69">
<rect x="74" y="24" width="69" height="69" fill="#D9D9D9"/>
</mask>
<g mask="url(#mask0_5151_8853)">
<path d="M88.375 84.3736C86.7937 84.3736 85.4401 83.8106 84.3141 82.6846C83.188 81.5585 82.625 80.2049 82.625 78.6236V38.3736C82.625 36.7924 83.188 35.4387 84.3141 34.3127C85.4401 33.1867 86.7937 32.6236 88.375 32.6236H107.134C108.093 32.6236 108.811 32.9231 109.291 33.5221C109.77 34.121 110.009 34.7799 110.009 35.4986C110.009 36.2174 109.758 36.8762 109.255 37.4752C108.752 38.0742 108.021 38.3736 107.062 38.3736H88.375V78.6236H128.625V59.8643C128.625 58.9059 128.924 58.1872 129.523 57.708C130.122 57.2288 130.781 56.9893 131.5 56.9893C132.219 56.9893 132.878 57.2288 133.477 57.708C134.076 58.1872 134.375 58.9059 134.375 59.8643V78.6236C134.375 80.2049 133.812 81.5585 132.686 82.6846C131.56 83.8106 130.206 84.3736 128.625 84.3736H88.375ZM99.875 64.2486V57.2768C99.875 56.5101 100.019 55.7794 100.306 55.0846C100.594 54.3898 101.001 53.7788 101.528 53.2518L126.253 28.5268C126.828 27.9518 127.475 27.5205 128.194 27.233C128.913 26.9455 129.631 26.8018 130.35 26.8018C131.117 26.8018 131.847 26.9455 132.542 27.233C133.237 27.5205 133.872 27.9518 134.447 28.5268L138.472 32.6236C138.999 33.1986 139.406 33.8335 139.694 34.5283C139.981 35.2231 140.125 35.9299 140.125 36.6486C140.125 37.3674 139.993 38.0742 139.73 38.7689C139.466 39.4637 139.047 40.0986 138.472 40.6736L113.747 65.3986C113.22 65.9257 112.609 66.345 111.914 66.6564C111.219 66.9679 110.489 67.1236 109.722 67.1236H102.75C101.935 67.1236 101.253 66.8481 100.702 66.2971C100.151 65.746 99.875 65.0632 99.875 64.2486ZM105.625 61.3736H109.65L126.325 44.6986L124.312 42.6861L122.228 40.6736L105.625 57.2768V61.3736Z" fill="#154973"/>
</g>
</svg>

<svg xmlns="http://www.w3.org/2000/svg" width="218" height="118" fill="none" viewBox="0 0 218 118"><path fill="#f6f6f6" d="M0 0h218v118H0z"/><mask id="a" width="69" height="69" x="74" y="24" maskUnits="userSpaceOnUse" style="mask-type:alpha"><path fill="#d9d9d9" d="M74 24h69v69H74z"/></mask><g mask="url(#a)"><path fill="#154973" d="M88.375 84.374q-2.372 0-4.06-1.69-1.69-1.69-1.69-4.06v-40.25q0-2.373 1.69-4.061 1.688-1.69 4.06-1.69h18.759q1.438 0 2.157.9.718.897.718 1.976 0 1.077-.754 1.976-.755.9-2.193.899H88.375v40.25h40.25v-18.76q0-1.437.898-2.156t1.977-.719q1.078 0 1.977.719.898.72.898 2.156v18.76q0 2.371-1.689 4.06-1.69 1.69-4.061 1.69zm11.5-20.125v-6.972q0-1.15.431-2.192a5.6 5.6 0 0 1 1.222-1.833l24.725-24.725a5.7 5.7 0 0 1 1.941-1.294 5.8 5.8 0 0 1 2.156-.431q1.15 0 2.192.431t1.905 1.294l4.025 4.097a6.5 6.5 0 0 1 1.222 1.904q.43 1.043.431 2.12 0 1.08-.395 2.12a5.4 5.4 0 0 1-1.258 1.906l-24.725 24.725a6.1 6.1 0 0 1-1.833 1.257 5.3 5.3 0 0 1-2.192.468h-6.972q-1.222 0-2.048-.827t-.827-2.048m5.75-2.875h4.025l16.675-16.675-2.013-2.013-2.084-2.012-16.603 16.603z"/></g></svg>
